!!!!SEGMENT: pl-sa--573-a-ix-53--006_dembowska-konstancja--zolkiewski-spiew.krn
!!!cenid: 18xx:607
!!!COM: Dembowska, Konstancja
!!!COM-rism: pe30115112
!!!CDT: <1760->1818
!!!CNT:
!!!OTL: Żółkiewski Śpiew
!!!PDT:
!!!AGN: Secular
!!!SMS-siglum: PL-SA
!!!SMS-shelfmark: 573/A IX 53
!!!NIFC-rismID: 1001077508
!!!URL-scan: http://bc.bdsandomierz.pl/dlibra/publication/1379/edition/1347/content
!!!ONB-nifc: Str. 12, s. 3-4
!!!SMS-variant:
!!!SMS-altvar:
**kern	**kern
*part2	*part1
*staff2	*staff1
*I'keyb	*
*clefF4	*clefG2
*k[f#]	*k[f#]
*M4/4	*M4/4
*met(c)	*met(c)
=1	=1
*2\right	*
!	!LO:TX:i:a:t=Spiew
!	!LO:TX:i:a:t=Zółkiewska
2G 2GG\	4dd 4b\
.	8eeL 8cc\
.	8ddJ 8b\
8ryy	4.b 4.g/
8G\L	.
8B\	.
8G\J	8dd 8b/
=2	=2
4d\	8ccL 8a\
.	8b 8g\
4D/	8cc 8a\
.	8ddJ 8b\
!LO:TX:a:t=P:problem:mixed beam	!
8G\L	4b 4g/
8GG/	.
.	16qqcc/LL
.	16qqb/JJ
8D\	4a 4f#/
8D\J	.
=3	=3
8r	4cc 4a/
!LO:TX:a:t=P:problem:mixed beam	!
8D/L	.
8d\J	8bL 8g/
8r	8aJ 8f#/
8D\L	4cc 4a/
8d\J	.
4ryy	8bL 8g/
.	8aJ 8f#/
=4	=4
4G\	8bL 8g/
.	8ddJ 8b/
4C/	8eeL 8cc/
.	8ddJ 8b/
4D\	4b 4g/
16D\LL	8b 8g/
16C\	.
16BB\	8r
16AA\JJ	.
=5	=5
!LO:TX:a:t=P:problem:mixed beam	!
8GG/L	4dd 4b\
8G\J	.
8r	8gg\L
4ryy	8eeJ 8cc\
.	4.dd 4.b\
8G\L	.
8B\	.
8G\J	8b\
=6	=6
4d\	8ccL 8a\
.	8b 8g\
4D/	8cc 8a\
.	8ddJ 8b\
8G\L	4b 4g/
8GG\	.
.	16qqcc/LL
.	16qqb/JJ
8D\	4a 4f#/
8D\J	.
=7	=7
4r	4ff# 4dd\
4D\	8eeL 8cc\
.	8ddJ 8b\
!	!LO:N:n=1:vis=4
4r	4.gg 4.b\
4G 4GG/	.
.	8dd\
=8	=8
4r	8bL 8g/
.	8cc 8a/
4G\	8dd 8b/
.	8bJ 8g/
!!LO:LB:g=original
4d\	4b 4g/
4D/	8a 8f#/
.	8r
=9	=9
4r	4ff#\
.	16qqgg/LL
.	16qqff#/JJ
4D/	8ee\L
.	8dd\J
4.G 4.GG/	4.gg\
8C/	8cc\
=10	=10
4D/	8bL 8g/
.	8dd/
4DD/	8cc 8a/
.	8bJ 8g/
4GG/	8g/L
.	16a/L
.	16b/JJ
4r	16cc\LL
.	16dd\
.	16ee\
.	16ff#\JJ
=11	=11
*clefG2	*
4g 4B/	8gg\L
.	8ddd\J
*	*Xtuplet
4a 4d/	12ccc\L
.	12aa\
.	12ff#\J
*clefF4	*
4G 4D 4BB 4GG/	4gg 4dd 4b\
4G 4D 4BB 4GG/	4gg 4dd 4b\
==	==
*-	*-
!!!system-decoration: [(s1,s2)]
!!!RDF**kern: > = above
!!!RDF**kern: < = below
!!!EED: Mateusz Mrugas
!!!EST: 2020-12-10
!!!ENC: Berenika Jozajtis
!!!END: 2020-06-19
